X:17788
T:Trip to Oxford. BF11.37
M:6/8
L:1/8
C:Browne A hand
S:MS11,c1800.,Browne Coll.,Lakes
R:Jig
O:England
A:Lakes
Z:vmp.Cherri Graebe.
K:D major
D2GF2D|A,2DF2D|ABA A2d|c2de3|!
DEDF2D|A,2DF2D|ABAB2c|d3d3:|!
|:ABAc2d|e2fg2e|f2dd2f|ecAA2B|!
ABAc2d|e2fg2e|faf edc|d3D3:|]
